X:1
T:Title
%%score { ( 1 3 ) | ( 2 4 ) }
L:1/8
M:4/4
K:Ab
V:1 treble nm="Grand Piano"
V:3 treble 
V:2 bass 
V:4 bass 
V:1
 z4 z2[Q:1/4=108] C>E | A2 [CA]2 [CA]2 A>B | c2 [Ec]2 [Ec]2 A>B | c2 A2 F2 A2 | %4
[M:3/4] E2- [DE-]2 [CE]2 |[M:1/4] C>E |[M:4/4] A2 [CA]2 [CA]2 A>B | c2 [Ec]2 [Ec]2 [Ec]2 | %8
 [FB]2 [Fd]2 [Ec]2 [DB]2 |[M:3/4] [A,CA]6 |[M:1/4] z2 |[M:4/4] c6 z2 | z2 C2 C2 Ac | B6 z2 | %14
[M:3/4] c6 |[M:1/4] e2 |[M:4/4] c6 z2 | z2 C2 C2 [CA][Ec] | [EB]2 Bc .[=DB]2 D-[DF] | [G,E]6 e2 | %20
 c6 z2 | z2 C2 C2 Ac | B6 z2 |[M:3/4] c6 |[M:1/4] c2 |[M:4/4] eeee e2 c2 | [Fd][Fd][Fd][Fd] F2 F2 | %27
 Eccc c2 B2 |[M:3/4] [CA]6 |] %29
V:2
 z4 z2 C,>E, | A,2 [A,,E,]2 [A,,E,]2 A,>B, | C2 [A,,A,]2 [A,,A,]2 A,>B, | C2 A,2 F,2 A,2 | %4
[M:3/4] z2 F,2 E,2 |[M:1/4] C,>E, |[M:4/4] A,2 [A,,E,]2 [A,,E,]2 A,>B, | %7
 C2 [A,,A,]2 [A,,A,]2 [A,,A,]2 | [D,A,]2 [B,,B,]2 [E,A,]2 [E,G,]2 |[M:3/4] A,,6 | %10
[M:1/4][K:treble] e2 |[M:4/4][K:bass] A,,2 [A,C]2 [A,C]2 z2 | z2 [A,,A,]2 [A,,A,]2 z2 | %13
 z2 [E,B,]2 [E,B,]2 z2 |[M:3/4] z2 [A,,A,]2 [A,,A,]2 |[M:1/4] z2 |[M:4/4] z2 [A,C]2 [A,C]2 z2 | %17
 z2 [A,,A,]2 [A,,A,]2 [A,,A,]2 | [B,,G,]2 [B,,G,]2 z A z A, | E,2 E,F, E,D,C,B,, | %20
 A,,2 [A,C]2 [A,C]2 z2 | z2 [A,,A,]2 [A,,A,]2 z2 | z2 [E,B,]2 [E,B,]2 z2 | %23
[M:3/4] z2 [A,,A,]2 [A,,A,]2 |[M:1/4][K:treble] [A,E]2 | %25
[M:4/4] [A,CA][A,CA][A,CA][A,CA] [A,CA]2[K:bass] [A,E]2 | %26
 [D,A,][D,A,][D,A,][D,A,] [D,A,D]2 [D,A,D]2 | [E,A,C][E,A,E][E,A,E][E,A,E] [E,G,E]2 [E,G,D]2 | %28
[M:3/4] [A,,A,]6 |] %29
V:3
 x8 | x8 | x8 | x8 |[M:3/4] [A,C]2 z2 z2 |[M:1/4] x2 |[M:4/4] x8 | x8 | x8 |[M:3/4] x6 | %10
[M:1/4] x2 |[M:4/4] z2 E2 E2 AF | E6 z2 | z2 G2 G2 d2 |[M:3/4] z2 E2 E2 |[M:1/4] x2 | %16
[M:4/4] z2 E2 E2 AF | E6 z2 | z2 E2 z2 .[B,G]2 | x8 | z2 E2 E2 AF | E6 z2 | z2 G2 G2 d2 | %23
[M:3/4] z2 E2 E2 |[M:1/4] x2 |[M:4/4] x8 | x8 | x8 |[M:3/4] x6 |] %29
V:4
 x8 | x8 | x8 | x8 |[M:3/4] A,,6 |[M:1/4] x2 |[M:4/4] x8 | x8 | x8 |[M:3/4] x6 | %10
[M:1/4][K:treble] x2 |[M:4/4][K:bass] x8 | x8 | x8 |[M:3/4] x6 |[M:1/4] x2 |[M:4/4] x8 | x8 | %18
 z4 [B,,F,]2 B,,2 | x8 | x8 | x8 | x8 |[M:3/4] x6 |[M:1/4][K:treble] x2 |[M:4/4] x6[K:bass] x2 | %26
 x8 | x8 |[M:3/4] x6 |] %29

